panel/22/applications-email-panel.svg

<?xml version="1.0" encoding="UTF-8" standalone="no"?>
<!-- Created with Inkscape (http://www.inkscape.org/) -->

<svg
   xmlns:dc="http://purl.org/dc/elements/1.1/"
   xmlns:cc="http://creativecommons.org/ns#"
   xmlns:rdf="http://www.w3.org/1999/02/22-rdf-syntax-ns#"
   xmlns:svg="http://www.w3.org/2000/svg"
   xmlns="http://www.w3.org/2000/svg"
   xmlns:xlink="http://www.w3.org/1999/xlink"
   xmlns:inkscape="http://www.inkscape.org/namespaces/inkscape"
   version="1.0"
   width="22"
   height="22"
   id="svg3197">
  <metadata
     id="metadata12">
    <rdf:RDF>
      <cc:Work
         rdf:about="">
        <dc:format>image/svg+xml</dc:format>
        <dc:type
           rdf:resource="http://purl.org/dc/dcmitype/StillImage" />
      </cc:Work>
    </rdf:RDF>
  </metadata>
  <defs
     id="defs3199">
    <linearGradient
       x1="45.52272"
       y1="0.94087785"
       x2="45.52272"
       y2="34.003155"
       id="linearGradient2388"
       xlink:href="#linearGradient3678"
       gradientUnits="userSpaceOnUse"
       gradientTransform="matrix(0.4342346,0,0,0.5947449,-35.164623,-2.6039091)" />
    <linearGradient
       id="linearGradient3678">
      <stop
         id="stop3680"
         style="stop-color:#ffffff;stop-opacity:1"
         offset="0" />
      <stop
         id="stop3682"
         style="stop-color:#e6e6e6;stop-opacity:1"
         offset="1" />
    </linearGradient>
    <linearGradient
       x1="159.68553"
       y1="14.403693"
       x2="159.68553"
       y2="38.279892"
       id="linearGradient2388-2"
       xlink:href="#linearGradient3678"
       gradientUnits="userSpaceOnUse"
       gradientTransform="matrix(-0.4100229,0,0,0.5447147,78.029995,-3.8459034)" />
  </defs>
  <path
     d="M 3,6 C 2.446,6 2,6.446 2,7 l 0,10 c 0,0.554 0.446,1 1,1 l 16,0 c 0.554,0 1,-0.446 1,-1 L 20,7 C 20,6.446 19.554,6 19,6 L 3,6 z M 3.84375,7.15625 10.6875,14 l 0.59375,0 6.875,-6.84375 0.6875,0.6875 L 14.75,12 l 3.09375,3.15625 -0.6875,0.6875 L 14,12.6875 11.71875,15 10.28125,15 8,12.6875 4.84375,15.875 4.15625,15.15625 7.28125,12 3.15625,7.84375 3.84375,7.15625 z"
     inkscape:connector-curvature="0"
     id="path3193"
     style="opacity:0.5;fill:#000000;fill-opacity:1;fill-rule:nonzero;stroke:none;stroke-width:1;marker:none;visibility:visible;display:inline;overflow:visible;enable-background:accumulate" />
  <path
     d="M 3,5 C 2.446,5 2,5.446 2,6 l 0,10 c 0,0.554 0.446,1 1,1 l 16,0 c 0.554,0 1,-0.446 1,-1 L 20,6 C 20,5.446 19.554,5 19,5 L 3,5 z M 3.84375,6.15625 10.6875,13 l 0.59375,0 6.875,-6.84375 0.6875,0.6875 L 14.75,11 l 3.09375,3.15625 -0.6875,0.6875 L 14,11.6875 11.71875,14 10.28125,14 8,11.6875 4.84375,14.875 4.15625,14.15625 7.28125,11 3.15625,6.84375 3.84375,6.15625 z"
     inkscape:connector-curvature="0"
     id="rect3170"
     style="fill:url(#linearGradient2388);fill-opacity:1;fill-rule:nonzero;stroke:none;stroke-width:1;marker:none;visibility:visible;display:inline;overflow:visible;enable-background:accumulate" />
</svg>

<?xml version="1.0" encoding="UTF-8" standalone="no"?>
<!-- Created with Inkscape (http://www.inkscape.org/) -->

<svg
   xmlns:dc="http://purl.org/dc/elements/1.1/"
   xmlns:cc="http://creativecommons.org/ns#"
   xmlns:rdf="http://www.w3.org/1999/02/22-rdf-syntax-ns#"
   xmlns:svg="http://www.w3.org/2000/svg"
   xmlns="http://www.w3.org/2000/svg"
   xmlns:xlink="http://www.w3.org/1999/xlink"
   xmlns:sodipodi="http://sodipodi.sourceforge.net/DTD/sodipodi-0.dtd"
   xmlns:inkscape="http://www.inkscape.org/namespaces/inkscape"
   version="1.0"
   width="22"
   height="22"
   id="svg3197"
   inkscape:version="0.47 r22583"
   sodipodi:docname="applications-email-panel.svg">
  <metadata
     id="metadata12">
    <rdf:RDF>
      <cc:Work
         rdf:about="">
        <dc:format>image/svg+xml</dc:format>
        <dc:type
           rdf:resource="http://purl.org/dc/dcmitype/StillImage" />
      </cc:Work>
    </rdf:RDF>
  </metadata>
  <sodipodi:namedview
     pagecolor="#ffffff"
     bordercolor="#666666"
     borderopacity="1"
     objecttolerance="10"
     gridtolerance="10"
     guidetolerance="10"
     inkscape:pageopacity="0"
     inkscape:pageshadow="2"
     inkscape:window-width="1280"
     inkscape:window-height="753"
     id="namedview10"
     showgrid="false"
     inkscape:zoom="13.409091"
     inkscape:cx="-0.41016949"
     inkscape:cy="11"
     inkscape:window-x="0"
     inkscape:window-y="24"
     inkscape:window-maximized="1"
     inkscape:current-layer="svg3197" />
  <defs
     id="defs3199">
    <linearGradient
       x1="45.52272"
       y1="0.94087785"
       x2="45.52272"
       y2="34.003155"
       id="linearGradient2388"
       xlink:href="#linearGradient3678"
       gradientUnits="userSpaceOnUse"
       gradientTransform="matrix(0.4342346,0,0,0.5947449,-35.164623,-2.6039091)" />
    <linearGradient
       id="linearGradient3678">
      <stop
         style="stop-color:#ffffff;stop-opacity:1;"
         offset="0"
         id="stop3680" />
      <stop
         style="stop-color:#e6e6e6;stop-opacity:1;"
         offset="1"
         id="stop3682" />
    </linearGradient>
    <linearGradient
       gradientTransform="matrix(-0.4100229,0,0,0.5447147,78.029995,-3.8459034)"
       gradientUnits="userSpaceOnUse"
       xlink:href="#linearGradient3678"
       id="linearGradient2388-2"
       y2="38.279892"
       x2="159.68553"
       y1="14.403693"
       x1="159.68553" />
  </defs>
  <path
     d="M 3,6 C 2.446,6 2,6.446 2,7 L 2,17 C 2,17.554 2.446,18 3,18 L 19,18 C 19.554,18 20,17.554 20,17 L 20,7 C 20,6.446 19.554,6 19,6 L 3,6 z M 3.84375,7.15625 L 10.6875,14 L 11.28125,14 L 18.15625,7.15625 L 18.84375,7.84375 L 14.75,12 L 17.84375,15.15625 L 17.15625,15.84375 L 14,12.6875 L 11.71875,15 L 10.28125,15 L 8,12.6875 L 4.84375,15.875 L 4.15625,15.15625 L 7.28125,12 L 3.15625,7.84375 L 3.84375,7.15625 z"
     id="path3193"
     style="opacity:0.50000000000000000;fill:#000000;fill-opacity:1;fill-rule:nonzero;stroke:none;stroke-width:1;stroke-linecap:butt;stroke-linejoin:miter;marker:none;marker-start:none;marker-mid:none;marker-end:none;stroke-miterlimit:4;stroke-dasharray:none;stroke-dashoffset:0;stroke-opacity:1;visibility:visible;display:inline;overflow:visible;enable-background:accumulate" />
  <path
     d="M 3,5 C 2.446,5 2,5.446 2,6 L 2,16 C 2,16.554 2.446,17 3,17 L 19,17 C 19.554,17 20,16.554 20,16 L 20,6 C 20,5.446 19.554,5 19,5 L 3,5 z M 3.84375,6.15625 L 10.6875,13 L 11.28125,13 L 18.15625,6.15625 L 18.84375,6.84375 L 14.75,11 L 17.84375,14.15625 L 17.15625,14.84375 L 14,11.6875 L 11.71875,14 L 10.28125,14 L 8,11.6875 L 4.84375,14.875 L 4.15625,14.15625 L 7.28125,11 L 3.15625,6.84375 L 3.84375,6.15625 z"
     id="rect3170"
     style="opacity:1;fill:url(#linearGradient2388);fill-opacity:1;fill-rule:nonzero;stroke:none;stroke-width:1;stroke-linecap:butt;stroke-linejoin:miter;marker:none;marker-start:none;marker-mid:none;marker-end:none;stroke-miterlimit:4;stroke-dasharray:none;stroke-dashoffset:0;stroke-opacity:1;visibility:visible;display:inline;overflow:visible;enable-background:accumulate" />
</svg>
